img/services/equipment/10.svg

<svg width="111" height="54" viewBox="0 0 111 54" fill="none" xmlns="http://www.w3.org/2000/svg">
<path fill-rule="evenodd" clip-rule="evenodd" d="M0 5.56904V11.1381L16.2328 11.1864L32.4655 11.2346L39.0783 27.6591C42.7154 36.6925 46.5843 46.3148 47.6758 49.0419L49.6605 54L55.5783 53.9503L61.496 53.9005L70.0876 32.5203L78.679 11.1402H94.8395H111V5.57017V0L90.5423 0.0481417L70.0848 0.0960933L65.8792 11.1402C63.5664 17.2144 60.3087 25.7734 58.6404 30.1605C56.972 34.5475 55.5544 38.1368 55.4902 38.1368C55.426 38.1368 55.2774 37.8183 55.1598 37.4288C55.0421 37.0395 51.8357 28.4803 48.0343 18.4085L41.1225 0.0960933L20.5613 0.0481417L0 0V5.56904ZM0 20.5795V26.0544H5.29229C9.45442 26.0544 10.5639 26.1048 10.488 26.2903C10.4347 26.4202 8.12834 32.5156 5.36241 39.8358C2.59647 47.1561 0.260479 53.3364 0.171309 53.5701L0.00925056 53.9949H5.69541H11.3816L12.4194 51.0215L13.4571 48.0481L22.343 47.999L31.2289 47.9501L32.4031 50.9707L33.5775 53.9915L39.3785 53.9932C43.9449 53.9945 45.1604 53.9447 45.0888 53.7589C45.039 53.6292 41.5162 44.8787 37.2609 34.3138L29.5236 15.1047H14.7617H0V20.5795ZM74.0692 34.5551L66.2759 54L72.1874 53.9503L78.0989 53.9005L80.9199 47.0098L83.741 40.119H84.3648C84.9748 40.119 85.0957 40.2738 89.7951 47.057L94.6016 53.9949H101.343H108.084L107.633 53.3813C107.385 53.0438 104.666 49.3817 101.592 45.2431C98.5171 41.1045 95.9839 37.6414 95.9621 37.5472C95.9403 37.453 96.4636 37.1788 97.125 36.938C99.7886 35.9678 101.932 34.5781 103.991 32.4875C105.385 31.0706 107.251 28.404 107.929 26.8567L108.281 26.0544H109.641H111V20.5795V15.1047H105.653H100.306L100.174 16.2846C99.4155 23.0576 95.6802 28.0672 90.3523 29.4578C88.7974 29.8637 87.7857 29.9417 87.9673 29.6417C88.03 29.5381 89.2921 26.3311 90.7719 22.515C92.2515 18.6988 93.5044 15.4706 93.556 15.3407C93.6298 15.1547 92.3982 15.1053 87.756 15.1073L81.8625 15.11L74.0692 34.5551ZM24.5588 31.2047C26.0086 34.8632 27.195 37.9197 27.195 37.9967C27.195 38.0737 24.8986 38.1368 22.0921 38.1368C18.8559 38.1368 17.0117 38.0694 17.0509 37.9525C18.0667 34.9181 21.7638 24.5516 21.83 24.552C21.8809 24.5524 23.1089 27.546 24.5588 31.2047Z" fill="white"/>
</svg>

<svg width="111" height="54" fill="none" xmlns="http://www.w3.org/2000/svg"><path fill-rule="evenodd" clip-rule="evenodd" d="M0 5.569v5.57l16.233.047 16.232.049 6.613 16.424a18163.43 18163.43 0 018.598 21.383L49.66 54l5.918-.05 5.918-.05 8.592-21.38 8.591-21.38H111V0L90.542.048 70.085.096 65.879 11.14a60803.34 60803.34 0 00-7.239 19.02c-1.668 4.387-3.086 7.977-3.15 7.977-.064 0-.213-.319-.33-.708-.118-.39-3.324-8.949-7.126-19.02L41.123.096 20.56.048 0 0v5.569zm0 15.01v5.475h5.292c4.162 0 5.272.05 5.196.236-.053.13-2.36 6.226-5.126 13.546L.172 53.57l-.163.425h11.373l1.037-2.973 1.038-2.974L22.343 48l8.886-.049 1.174 3.02 1.175 3.022 5.8.001c4.567.002 5.782-.048 5.71-.234-.049-.13-3.572-8.88-7.827-19.445l-7.737-19.21H0v5.476zm74.07 13.976L66.275 54l5.911-.05 5.912-.05 2.82-6.89 2.822-6.891h.624c.61 0 .73.155 5.43 6.938l4.807 6.938h13.482l-.451-.614c-.248-.337-2.967-4-6.041-8.138-3.075-4.139-5.608-7.602-5.63-7.696-.022-.094.502-.368 1.163-.609 2.664-.97 4.807-2.36 6.866-4.45 1.394-1.417 3.26-4.084 3.938-5.631l.352-.803H111V15.105h-10.694l-.132 1.18c-.759 6.773-4.494 11.782-9.822 13.173-1.555.406-2.566.484-2.385.184.063-.104 1.325-3.31 2.805-7.127a7454.51 7454.51 0 012.784-7.174c.074-.186-1.158-.236-5.8-.234l-5.894.003-7.793 19.445zm-49.511-3.35c1.45 3.658 2.636 6.715 2.636 6.792 0 .077-2.296.14-5.103.14-3.236 0-5.08-.068-5.041-.184 1.016-3.035 4.713-13.401 4.779-13.401.05 0 1.279 2.994 2.729 6.653z" fill="#fff"/></svg>
